X:58
T:Gallagher's March 2 (j)
B:NFID.175b
058gall_M2
S:F&MB
L:1/8
M:6/8
R:jig
Q:280
K:A=G
e2d|:cBA ecA|fed cBA|dfa gfg|BdB Bed|
cBA ecA|fdf ecA|c2e dBe|ABA A2d:|
agf g2e|fdf ecA|dfa gfg|BcB B2^g|
agf g2e|fdf ecA|cec dBe|AeA A2d:|

%%%

